modules/hawcons-stroke/icons/icon-68-document-time.svg

<?xml version="1.0" encoding="UTF-8" standalone="no"?>
<svg width="32px" height="32px" viewBox="0 0 32 32" version="1.1" xmlns="http://www.w3.org/2000/svg" xmlns:xlink="http://www.w3.org/1999/xlink" xmlns:sketch="http://www.bohemiancoding.com/sketch/ns">
    <!-- Generator: Sketch 3.0.3 (7891) - http://www.bohemiancoding.com/sketch -->
    <title>icon 68 document time</title>
    <desc>Created with Sketch.</desc>
    <defs></defs>
    <g id="Page-1" stroke="none" stroke-width="1" fill="none" fill-rule="evenodd" sketch:type="MSPage">
        <g id="icon-68-document-time" sketch:type="MSArtboardGroup" fill="#929292">
            <path d="M20.9725356,21 C20.7419612,18.9141916 19.0858084,17.2580388 17,17.0274644 L17,17.0274644 L17,21 L20.9725356,21 L20.9725356,21 Z M20.9725356,22 C20.7238135,24.2499753 18.8162769,26 16.5,26 C14.0147185,26 12,23.9852815 12,21.5 C12,19.1837231 13.7500247,17.2761865 16,17.0274644 L16,22 L17,22 L20.9725356,22 L20.9725356,22 Z M19.5,3 L9.00276013,3 C7.89666625,3 7,3.89833832 7,5.00732994 L7,27.9926701 C7,29.1012878 7.89092539,30 8.99742191,30 L24.0025781,30 C25.1057238,30 26,29.1017876 26,28.0092049 L26,10.5 L26,10 L20,3 L19.5,3 L19.5,3 L19.5,3 Z M19,4 L8.9955775,4 C8.44573523,4 8,4.45526288 8,4.99545703 L8,28.004543 C8,28.5543187 8.45470893,29 8.9999602,29 L24.0000398,29 C24.5523026,29 25,28.5550537 25,28.0066023 L25,11 L20.9979131,11 C19.8944962,11 19,10.1134452 19,8.99408095 L19,4 L19,4 Z M20,4.5 L20,8.99121523 C20,9.54835167 20.4506511,10 20.9967388,10 L24.6999512,10 L20,4.5 L20,4.5 Z M16.5,27 C19.5375663,27 22,24.5375663 22,21.5 C22,18.4624337 19.5375663,16 16.5,16 C13.4624337,16 11,18.4624337 11,21.5 C11,24.5375663 13.4624337,27 16.5,27 L16.5,27 Z" id="document-time" sketch:type="MSShapeGroup"></path>
        </g>
    </g>
</svg>

<svg width="32" height="32" xmlns="http://www.w3.org/2000/svg"><path d="M20.973 21A4.502 4.502 0 0 0 17 17.027V21h3.973zm0 1A4.5 4.5 0 1 1 16 17.027V22h4.973zM19.5 3H9.003A2.005 2.005 0 0 0 7 5.007v22.986A2 2 0 0 0 8.997 30h15.006A1.999 1.999 0 0 0 26 28.01V10l-6-7h-.5zM19 4H8.996C8.446 4 8 4.455 8 4.995v23.01c0 .55.455.995 1 .995h15c.552 0 1-.445 1-.993V11h-4.002A1.995 1.995 0 0 1 19 8.994V4zm1 .5v4.491c0 .557.45 1.009.997 1.009H24.7L20 4.5zM16.5 27a5.5 5.5 0 1 0 0-11 5.5 5.5 0 0 0 0 11z" fill="#929292" fill-rule="evenodd"/></svg>
